symbols/web/label_off/materialsymbolsoutlined/label_off_wght100gradN25_48px.svg

<svg xmlns="http://www.w3.org/2000/svg" height="48" width="48"><path d="m33.2 31.9-.75-.8L37.5 24l-6.4-9q-.5-.7-1.15-1-.65-.3-1.45-.3H14.95l-1.1-1.1h14.5q1.25 0 2.225.55.975.55 1.675 1.45l6.6 9.4Zm3.45 10.3-7-7q-.15.1-.55.15-.4.05-.75.05h-17q-1.2 0-1.95-.8t-.75-1.9V15.6q0-.25.075-.575.075-.325.075-.675L4.85 10.4l.8-.8 31.8 31.8ZM19.2 24.85Zm4.55-2.4Zm5 11.85-19-19v17.4q0 .6.475 1.1.475.5 1.125.5Z"/></svg>

<svg xmlns="http://www.w3.org/2000/svg" height="48" width="48"><path d="M33.2 31.9 32.45 31.1 37.5 24 31.1 15Q30.6 14.3 29.95 14Q29.3 13.7 28.5 13.7H14.95L13.85 12.6H28.35Q29.6 12.6 30.575 13.15Q31.55 13.7 32.25 14.6L38.85 24ZM36.65 42.2 29.65 35.2Q29.5 35.3 29.1 35.35Q28.7 35.4 28.35 35.4H11.35Q10.15 35.4 9.4 34.6Q8.65 33.8 8.65 32.7V15.6Q8.65 15.35 8.725 15.025Q8.8 14.7 8.8 14.35L4.85 10.4L5.65 9.6L37.45 41.4ZM19.2 24.85Q19.2 24.85 19.2 24.85Q19.2 24.85 19.2 24.85ZM23.75 22.45Q23.75 22.45 23.75 22.45Q23.75 22.45 23.75 22.45ZM28.75 34.3 9.75 15.3V32.7Q9.75 33.3 10.225 33.8Q10.7 34.3 11.35 34.3Z"/></svg>
